findly-builder/apps/searchassist/src/assets/icons/content/latest-content-icons/green-check-document.svg

<svg width="15" height="17" viewBox="0 0 15 17" fill="none" xmlns="http://www.w3.org/2000/svg">
<path d="M1.5 0.5C0.67275 0.5 0 1.17275 0 2V14C0 14.8273 0.67275 15.5 1.5 15.5H6.5127C6.2907 15.0335 6.13581 14.5302 6.06006 14H1.5V2H6.75V5.75H10.5V8.05859C10.7452 8.02334 10.995 7.99854 11.25 7.99854C11.505 7.99854 11.7548 8.02334 12 8.05859V5L7.5 0.5H1.5ZM11.25 9.5C9.17925 9.5 7.5 11.1792 7.5 13.25C7.5 15.3208 9.17925 17 11.25 17C13.3208 17 15 15.3208 15 13.25C15 11.1792 13.3208 9.5 11.25 9.5ZM12.7881 11.4878L13.8369 12.5381L10.875 15.5L8.66309 13.2881L9.71191 12.2378L10.875 13.3994L12.7881 11.4878Z" fill="#93D3A2"/>
</svg>

<svg width="15" height="17" fill="none" xmlns="http://www.w3.org/2000/svg"><path d="M1.5.5C.673.5 0 1.173 0 2v12c0 .827.673 1.5 1.5 1.5h5.013A5.195 5.195 0 0 1 6.06 14H1.5V2h5.25v3.75h3.75v2.309a5.26 5.26 0 0 1 .75-.06c.255 0 .505.024.75.06V5L7.5.5h-6Zm9.75 9a3.75 3.75 0 1 0 0 7.5 3.75 3.75 0 0 0 0-7.5Zm1.538 1.988 1.049 1.05-2.962 2.962-2.212-2.212 1.049-1.05 1.163 1.161 1.913-1.911Z" fill="#93D3A2"/></svg>
